X: 11
T:Atlantic Polka (third change)
R:Polka
M:2/4
L:1/16
K:D
A2|AAFA f2d2|BABd g2e2|cdec A2Bc|defg a4|
AAFA f2d2|BABd g2e2|cdec A2Bc|d2f2 d2:|
|:A2|f2a2 f3f|e2g2 B4|cdec A2Bc|ddcB A4|
f2a2 f3f|e2g2 B4|cdec A2Bc|d2f2 d2:|
